assets/img/braze_icons/shopping-bag-02.svg

<svg fill="none" height="24" viewBox="0 0 24 24" width="24" xmlns="http://www.w3.org/2000/svg"><path clip-rule="evenodd" d="m7.09812 5.00942c.45962-2.28693 2.4796-4.00942 4.90188-4.00942 2.4223 0 4.4423 1.72249 4.9019 4.00942.2223.00574.428.01499.6178.02987.5226.04097 1.0038.12885 1.4637.34717.717.34035 1.3166.88632 1.7224 1.56843.2603.43753.3927.90842.4822 1.4249.086.49561.1431 1.1047.212 1.83991l.6077 6.4822c.0819.8731.1492 1.5907.1544 2.176.0055.6056-.052 1.1672-.2814 1.7011-.3536.8232-.9734 1.5038-1.7599 1.9327-.5102.2782-1.064.3879-1.6674.439-.5833.0493-1.3041.0493-2.181.0493h-8.54478c-.87689 0-1.59775 0-2.18098-.0493-.60342-.0511-1.15724-.1608-1.66741-.439-.78653-.4289-1.40629-1.1095-1.75996-1.9327-.22939-.5339-.28687-1.0955-.2814-1.7011.00529-.5853.07259-1.3029.15445-2.176l.6077-6.4822c.06892-.73521.12601-1.3443.21196-1.83991.08957-.51648.22198-.98737.48227-1.42491.4058-.6821 1.00534-1.22807 1.72235-1.56842.45992-.21832.94111-.3062 1.4637-.34717.18984-.01488.39548-.02413.61782-.02987zm2.07259-.00942c.41183-1.16519 1.52309-2 2.82929-2s2.4175.83481 2.8293 2z" fill="#801ed7" fill-rule="evenodd"/></svg>

<svg width="24" height="24" viewBox="0 0 24 24" fill="none" xmlns="http://www.w3.org/2000/svg">
<path fill-rule="evenodd" clip-rule="evenodd" d="M7.09812 5.00942C7.55774 2.72249 9.57772 1 12 1C14.4223 1 16.4423 2.72249 16.9019 5.00942C17.1242 5.01516 17.3299 5.02441 17.5197 5.03929C18.0423 5.08026 18.5235 5.16814 18.9834 5.38646C19.7004 5.72681 20.3 6.27278 20.7058 6.95489C20.9661 7.39242 21.0985 7.86331 21.188 8.37979C21.274 8.8754 21.3311 9.48449 21.4 10.2197L22.0077 16.7019C22.0896 17.575 22.1569 18.2926 22.1621 18.8779C22.1676 19.4835 22.1101 20.0451 21.8807 20.579C21.5271 21.4022 20.9073 22.0828 20.1208 22.5117C19.6106 22.7899 19.0568 22.8996 18.4534 22.9507C17.8701 23 17.1493 23 16.2724 23H7.72762C6.85073 23 6.12987 23 5.54664 22.9507C4.94322 22.8996 4.3894 22.7899 3.87923 22.5117C3.0927 22.0828 2.47294 21.4022 2.11927 20.579C1.88988 20.0451 1.8324 19.4835 1.83787 18.8779C1.84316 18.2926 1.91046 17.575 1.99232 16.7019L2.60002 10.2197C2.66894 9.48449 2.72603 8.8754 2.81198 8.37979C2.90155 7.86331 3.03396 7.39242 3.29425 6.95488C3.70005 6.27278 4.29959 5.72681 5.0166 5.38646C5.47652 5.16814 5.95771 5.08026 6.4803 5.03929C6.67014 5.02441 6.87578 5.01516 7.09812 5.00942ZM9.17071 5C9.58254 3.83481 10.6938 3 12 3C13.3062 3 14.4175 3.83481 14.8293 5L9.17071 5Z" fill="#801ED7"/>
</svg>
